X:426
T:Down In the Glen
C:Harry Gordon and Tommy Connor
S:Take the Floor, Radio Scotland
Z:Nigel Gatherer
M:3/4
L:1/8
K:D
A2 | D3   EFG | A4    Dd | B3   AGB | A4 BF |
     G2 G2 AE | F2 F4    | E2 D2 E2 | D4   :|
zD | d3   cdB | A2 A3  F | GF G2 AE | F4 D2 |
     d3   cdB | A2 c2 EE | c3   BAB | A4   ||
<end>
<start>
